build/assets/fonts/f66d5a061976c8b9bf6e852d9d1e2de7.svg

<svg preserveAspectRatio="xMinYMin" viewBox="0 0 605 605" xmlns="http://www.w3.org/2000/svg"><path d="M113.601 324.248c-1.353-4.904-2.853-9.774-3.952-14.734-.265-1.194.465-2.949 1.301-3.998 37.169-46.657 80.038-86.218 136.834-107.865 25.304-9.645 51.541-13.119 78.529-8.633.792.131 1.625.016 2.898-.825-1.685-1-3.301-2.146-5.065-2.979-19.76-9.341-40.766-11.222-62.037-8.816-43.86 4.962-82.027 23.961-114.138 53.138-21.943 19.938-41.337 42.976-55.336 69.803-1.832 3.509-5.01 6.74-8.328 8.953-5.649 3.768-10.827.951-10.96-5.904-.105-5.432.332-11.031 1.583-16.307 5.655-23.849 16.448-45.681 27.4-67.395 14.577-28.903 30.257-57.111 51.775-81.655 36.754-41.923 82.389-67.448 137.841-74.609 28.956-3.739 57.815-1.845 86.517 3.167 4.738.827 9.569 1.522 14.362 1.561 16.595.134 26.748-9.305 27.224-25.995.274-9.605-.823-19.251-1.335-28.877-.106-1.992-.616-3.997-.459-5.958.162-2.017.912-3.987 1.405-5.977 1.928.748 4.303 1.015 5.711 2.323 8.898 8.266 18.025 16.355 26.238 25.274 14.121 15.336 23.344 33.566 28.952 53.588 1.952 6.97 5.564 12.402 11.097 17.252 32.738 28.69 62.334 60.161 84.468 98.017 13.664 23.368 23.608 48.129 27.248 75.098 3.125 23.153 1.409 45.831-7.568 67.712-.897 2.185-.758 5.134-.201 7.519 2.381 10.189 5.168 20.283 7.641 30.452.543 2.232.447 4.627.575 6.951.866 15.732-10.597 20.104-22.349 16.412-8.21-2.579-16.024-7.428-23.05-12.578-22.133-16.223-40.805-36.264-59.78-55.932a28928.301 28928.301 0 0 0-52.796-54.61c-2.084-2.148-4.511-3.959-6.641-6.067-6.531-6.461-13.955-8.021-23.189-6.783-28.355 3.803-56.526 2.276-83.992-6.331-7.711-2.417-15.078-5.932-22.509-9.564 15.275-3.096 29.604-8.077 43.106-15.233 4.665-2.473 9.149-5.521 13.136-8.974 4.349-3.766 3.872-6.369-.304-10.351-9.176-8.748-20.989-11.327-32.72-13.63-32.646-6.411-63.151 1.099-92.411 15.336-31.363 15.26-58.596 36.357-83.054 60.92-14.315 14.377-27.335 30.042-40.906 45.157-.641.714-.969 1.709-1.443 2.573l-1.318-.626zm-56.179 25.804c-4.568 15.432-7.455 30.185-21.645 38.689-11.218 6.723-23.773 3.417-28.893-7.535-3.545-7.583-1.97-14.448 4.787-19.45 7.913-5.858 16.792-9.525 26.631-10.488 5.919-.579 11.875-.77 19.12-1.216zm-1.936-11.765c-7.035.652-14.118 2.13-21.093 1.729-7.349-.423-14.825-1.941-21.831-4.243-9.883-3.247-12.899-8.853-11.484-18.2 1.329-8.778 7.84-14.703 17.126-15.286 9.768-.613 17.844 3.614 23.573 10.899 5.664 7.202 9.895 15.53 14.755 23.364l-1.046 1.737z" fill="#87B044" fill-rule="evenodd"/></svg>

<svg preserveAspectRatio="xMinYMin" viewBox="0 0 605 605" version="1.1" xmlns="http://www.w3.org/2000/svg" xmlns:xlink="http://www.w3.org/1999/xlink"><title>dolphin</title><desc>Created with Sketch.</desc><g id="Page-1" stroke="none" stroke-width="1" fill="none" fill-rule="evenodd"><path d="M113.601,324.248 C112.248,319.344 110.748,314.474 109.649,309.514 C109.384,308.32 110.114,306.565 110.95,305.516 C148.119,258.859 190.988,219.298 247.784,197.651 C273.088,188.006 299.325,184.532 326.313,189.018 C327.105,189.149 327.938,189.034 329.211,188.193 C327.526,187.193 325.91,186.047 324.146,185.214 C304.386,175.873 283.38,173.992 262.109,176.398 C218.249,181.36 180.082,200.359 147.971,229.536 C126.028,249.474 106.634,272.512 92.635,299.339 C90.803,302.848 87.625,306.079 84.307,308.292 C78.658,312.06 73.48,309.243 73.347,302.388 C73.242,296.956 73.679,291.357 74.93,286.081 C80.585,262.232 91.378,240.4 102.33,218.686 C116.907,189.783 132.587,161.575 154.105,137.031 C190.859,95.108 236.494,69.583 291.946,62.422 C320.902,58.683 349.761,60.577 378.463,65.589 C383.201,66.416 388.032,67.111 392.825,67.15 C409.42,67.284 419.573,57.845 420.049,41.155 C420.323,31.55 419.226,21.904 418.714,12.278 C418.608,10.286 418.098,8.281 418.255,6.32 C418.417,4.303 419.167,2.333 419.66,0.343 C421.588,1.091 423.963,1.358 425.371,2.666 C434.269,10.932 443.396,19.021 451.609,27.94 C465.73,43.276 474.953,61.506 480.561,81.528 C482.513,88.498 486.125,93.93 491.658,98.78 C524.396,127.47 553.992,158.941 576.126,196.797 C589.79,220.165 599.734,244.926 603.374,271.895 C606.499,295.048 604.783,317.726 595.806,339.607 C594.909,341.792 595.048,344.741 595.605,347.126 C597.986,357.315 600.773,367.409 603.246,377.578 C603.789,379.81 603.693,382.205 603.821,384.529 C604.687,400.261 593.224,404.633 581.472,400.941 C573.262,398.362 565.448,393.513 558.422,388.363 C536.289,372.14 517.617,352.099 498.642,332.431 C481.063,314.209 463.473,295.997 445.846,277.821 C443.762,275.673 441.335,273.862 439.205,271.754 C432.674,265.293 425.25,263.733 416.016,264.971 C387.661,268.774 359.49,267.247 332.024,258.64 C324.313,256.223 316.946,252.708 309.515,249.076 C324.79,245.98 339.119,240.999 352.621,233.843 C357.286,231.37 361.77,228.322 365.757,224.869 C370.106,221.103 369.629,218.5 365.453,214.518 C356.277,205.77 344.464,203.191 332.733,200.888 C300.087,194.477 269.582,201.987 240.322,216.224 C208.959,231.484 181.726,252.581 157.268,277.144 C142.953,291.521 129.933,307.186 116.362,322.301 C115.721,323.015 115.393,324.01 114.919,324.874 C114.48,324.665 114.04,324.456 113.601,324.248 Z M57.422,350.052 C52.854,365.484 49.967,380.237 35.777,388.741 C24.559,395.464 12.004,392.158 6.884,381.206 C3.339,373.623 4.914,366.758 11.671,361.756 C19.584,355.898 28.463,352.231 38.302,351.268 C44.221,350.689 50.177,350.498 57.422,350.052 Z M55.486,338.287 C48.451,338.939 41.368,340.417 34.393,340.016 C27.044,339.593 19.568,338.075 12.562,335.773 C2.679,332.526 -0.337,326.92 1.078,317.573 C2.407,308.795 8.918,302.87 18.204,302.287 C27.972,301.674 36.048,305.901 41.777,313.186 C47.441,320.388 51.672,328.716 56.532,336.55 C56.183,337.129 55.835,337.708 55.486,338.287 Z" id="dolphin" fill="#87B044"/></g></svg>
